icons/copy-o.svg

<svg width="24" height="24" viewBox="0 0 24 24" xmlns="http://www.w3.org/2000/svg">
    <path fill-rule="evenodd"
        d="M19 3L8 3L8 17H19V3ZM21 3C21 1.89543 20.1046 1 19 1H8C6.89543 1 6 1.89543 6 3L6 17C6 18.1046 6.89543 19 8 19L19 19C20.1046 19 21 18.1046 21 17V3ZM4 23C2.89543 23 2 22.1046 2 21V7H4L4 21L16 21V23L4 23Z" />
</svg>

<svg xmlns="http://www.w3.org/2000/svg" width="24" height="24" viewBox="0 0 24 24">
    <path
        d="M19 3H8v14h11V3zm2 0c0-1.105-.895-2-2-2H8c-1.105 0-2 .895-2 2v14c0 1.105.895 2 2 2h11c1.105 0 2-.895 2-2V3zM4 23c-1.105 0-2-.895-2-2V7h2v14h12v2H4z" />
</svg>
